www/assets/icons/globe.svg

<svg width="24" height="24" viewBox="0 0 24 24" xmlns="http://www.w3.org/2000/svg" fill='currentColor'><mask id="mask0_32484_493" style="mask-type:alpha" maskUnits="userSpaceOnUse" x="0" y="0" width="24" height="24"><rect width="24" height="24"/></mask><g mask="url(#mask0_32484_493)"><path d="M12 22C10.6167 22 9.31667 21.7375 8.1 21.2125C6.88333 20.6875 5.825 19.975 4.925 19.075C4.025 18.175 3.3125 17.1167 2.7875 15.9C2.2625 14.6833 2 13.3833 2 12C2 10.6167 2.2625 9.31667 2.7875 8.1C3.3125 6.88333 4.025 5.825 4.925 4.925C5.825 4.025 6.88333 3.3125 8.1 2.7875C9.31667 2.2625 10.6167 2 12 2C13.3833 2 14.6833 2.2625 15.9 2.7875C17.1167 3.3125 18.175 4.025 19.075 4.925C19.975 5.825 20.6875 6.88333 21.2125 8.1C21.7375 9.31667 22 10.6167 22 12C22 13.3833 21.7375 14.6833 21.2125 15.9C20.6875 17.1167 19.975 18.175 19.075 19.075C18.175 19.975 17.1167 20.6875 15.9 21.2125C14.6833 21.7375 13.3833 22 12 22ZM12 20C14.2333 20 16.125 19.225 17.675 17.675C19.225 16.125 20 14.2333 20 12C20 11.8833 19.9958 11.7625 19.9875 11.6375C19.9792 11.5125 19.975 11.4083 19.975 11.325C19.8917 11.8083 19.6667 12.2083 19.3 12.525C18.9333 12.8417 18.5 13 18 13H16C15.45 13 14.9792 12.8042 14.5875 12.4125C14.1958 12.0208 14 11.55 14 11V10H10V8C10 7.45 10.1958 6.97917 10.5875 6.5875C10.9792 6.19583 11.45 6 12 6H13C13 5.61667 13.1042 5.27917 13.3125 4.9875C13.5208 4.69583 13.775 4.45833 14.075 4.275C13.7417 4.19167 13.4042 4.125 13.0625 4.075C12.7208 4.025 12.3667 4 12 4C9.76667 4 7.875 4.775 6.325 6.325C4.775 7.875 4 9.76667 4 12H9C10.1 12 11.0417 12.3917 11.825 13.175C12.6083 13.9583 13 14.9 13 16V17H10V19.75C10.3333 19.8333 10.6625 19.8958 10.9875 19.9375C11.3125 19.9792 11.65 20 12 20Z"/></g></svg>

<svg xmlns="http://www.w3.org/2000/svg" width="24" height="24" viewBox="0 0 24 24" fill='currentColor'><mask id="a" width="24" height="24" x="0" y="0" maskUnits="userSpaceOnUse" style="mask-type:alpha"><path d="M0 0h24v24H0z"/></mask><g mask="url(#a)"><path d="M12 22a9.7 9.7 0 0 1-3.9-.788 10.1 10.1 0 0 1-3.175-2.137q-1.35-1.35-2.137-3.175A9.7 9.7 0 0 1 2 12q0-2.075.788-3.9a10.1 10.1 0 0 1 2.137-3.175q1.35-1.35 3.175-2.137A9.7 9.7 0 0 1 12 2q2.075 0 3.9.788a10.1 10.1 0 0 1 3.175 2.137q1.35 1.35 2.137 3.175A9.7 9.7 0 0 1 22 12a9.7 9.7 0 0 1-.788 3.9 10.1 10.1 0 0 1-2.137 3.175q-1.35 1.35-3.175 2.137A9.7 9.7 0 0 1 12 22m0-2q3.35 0 5.675-2.325T20 12q0-.175-.012-.363a5 5 0 0 1-.013-.312 1.98 1.98 0 0 1-.675 1.2Q18.75 13 18 13h-2q-.825 0-1.412-.588A1.93 1.93 0 0 1 14 11v-1h-4V8q0-.824.588-1.412A1.93 1.93 0 0 1 12 6h1q0-.574.313-1.013.312-.437.762-.712a10 10 0 0 0-1.012-.2A7 7 0 0 0 12 4Q8.65 4 6.325 6.325T4 12h5q1.65 0 2.825 1.175T13 16v1h-3v2.75q.5.125.988.188Q11.475 20 12 20"/></g></svg>
